Newaita-dark/actions/16/window-copy.svg

<svg height="16" viewBox="0 0 16 16" width="16" xmlns="http://www.w3.org/2000/svg"><g fill="#e0e0e0"><path d="m5.953125 1.449219c-1.097656 0-1.984375.882812-1.984375 1.984375v6.613281c0 1.101563.886719 1.984375 1.984375 1.984375h6.617187c1.097657 0 1.984376-.882812 1.984376-1.984375v-6.613281c0-1.101563-.886719-1.984375-1.984376-1.984375zm0 1.320312h6.617187c.363282 0 .660157.296875.660157.664063v6.613281c0 .367187-.296875.664063-.660157.664063h-6.617187c-.367187 0-.660156-.296876-.660156-.664063v-6.613281c0-.367188.292969-.664063.660156-.664063zm0 0"/><path d="m4.628906 4.753906h9.261719v.664063h-9.261719zm0 0"/><path d="m3.308594 4.09375c-1.101563 0-1.984375.886719-1.984375 1.984375v6.617187c0 1.097657.882812 1.984376 1.984375 1.984376h6.613281c1.101563 0 1.984375-.886719 1.984375-1.984376h-1.320312c0 .363282-.296876.660157-.664063.660157h-6.613281c-.367188 0-.664063-.296875-.664063-.660157v-6.617187c0-.367187.296875-.660156.664063-.660156zm0 0"/><path d="m1.984375 7.402344h1.324219v.660156h-1.324219zm0 0"/></g></svg>

<?xml version="1.0" encoding="UTF-8"?>
<svg xmlns="http://www.w3.org/2000/svg" xmlns:xlink="http://www.w3.org/1999/xlink" width="16px" height="16px" viewBox="0 0 16 16" version="1.1">
<g id="surface1">
<path style=" stroke:none;fill-rule:nonzero;fill:rgb(87.843138%,87.843138%,87.843138%);fill-opacity:1;" d="M 5.953125 1.449219 C 4.855469 1.449219 3.96875 2.332031 3.96875 3.433594 L 3.96875 10.046875 C 3.96875 11.148438 4.855469 12.03125 5.953125 12.03125 L 12.570312 12.03125 C 13.667969 12.03125 14.554688 11.148438 14.554688 10.046875 L 14.554688 3.433594 C 14.554688 2.332031 13.667969 1.449219 12.570312 1.449219 Z M 5.953125 2.769531 L 12.570312 2.769531 C 12.933594 2.769531 13.230469 3.066406 13.230469 3.433594 L 13.230469 10.046875 C 13.230469 10.414062 12.933594 10.710938 12.570312 10.710938 L 5.953125 10.710938 C 5.585938 10.710938 5.292969 10.414062 5.292969 10.046875 L 5.292969 3.433594 C 5.292969 3.066406 5.585938 2.769531 5.953125 2.769531 Z M 5.953125 2.769531 "/>
<path style=" stroke:none;fill-rule:nonzero;fill:rgb(87.843138%,87.843138%,87.843138%);fill-opacity:1;" d="M 4.628906 4.753906 L 13.890625 4.753906 L 13.890625 5.417969 L 4.628906 5.417969 Z M 4.628906 4.753906 "/>
<path style=" stroke:none;fill-rule:nonzero;fill:rgb(87.843138%,87.843138%,87.843138%);fill-opacity:1;" d="M 3.308594 4.09375 C 2.207031 4.09375 1.324219 4.980469 1.324219 6.078125 L 1.324219 12.695312 C 1.324219 13.792969 2.207031 14.679688 3.308594 14.679688 L 9.921875 14.679688 C 11.023438 14.679688 11.90625 13.792969 11.90625 12.695312 L 10.585938 12.695312 C 10.585938 13.058594 10.289062 13.355469 9.921875 13.355469 L 3.308594 13.355469 C 2.941406 13.355469 2.644531 13.058594 2.644531 12.695312 L 2.644531 6.078125 C 2.644531 5.710938 2.941406 5.417969 3.308594 5.417969 Z M 3.308594 4.09375 "/>
<path style=" stroke:none;fill-rule:nonzero;fill:rgb(87.843138%,87.843138%,87.843138%);fill-opacity:1;" d="M 1.984375 7.402344 L 3.308594 7.402344 L 3.308594 8.0625 L 1.984375 8.0625 Z M 1.984375 7.402344 "/>
</g>
</svg>
